brandFactory_export/1.Light/Sombrilla playa _1Light.svg

<?xml version="1.0" encoding="UTF-8"?>
<svg width="24px" height="24px" viewBox="0 0 24 24" version="1.1" xmlns="http://www.w3.org/2000/svg" xmlns:xlink="http://www.w3.org/1999/xlink">
    <title>1.Light/Sombrilla playa _1Light</title>
    <g id="Symbols" stroke="none" stroke-width="1" fill="none" fill-rule="evenodd">
        <g id="1.Light/Sombrilla-playa-_1Light" fill="#5CB615" fill-rule="nonzero">
            <path d="M22.3008403,5.58655462 L20.3142857,6.78319328 C16.7310924,2.79663866 13.0537815,1.92605042 10.6403361,1.88907563 C12.9361345,0.971428571 15.1243697,0.749579832 17.1680672,1.24705882 C19.097479,1.7210084 20.8756303,2.84369748 22.4588235,4.58823529 C22.5865546,4.72605042 22.6470588,4.9210084 22.6268908,5.10588235 C22.5966387,5.30756303 22.4756303,5.48571429 22.3008403,5.58655462 L22.3008403,5.58655462 Z M8.81512605,3.02857143 C10.394958,2.7394958 14.9865546,2.45378151 19.4403361,7.31428571 L13.4504202,10.9210084 L8.81512605,3.02857143 Z M7.24201681,14.6621849 C4.9092437,9.1092437 6.99327731,5.0789916 7.99495798,3.62016807 L12.589916,11.4386555 L7.24201681,14.6621849 Z M3.93781513,16.6554622 C3.75966387,16.7663866 3.54453782,16.789916 3.34621849,16.7226891 C3.15798319,16.6655462 3.00336134,16.5277311 2.92268908,16.3462185 C2.02857143,14.1882353 1.79663866,12.1378151 2.23361345,10.2453782 C2.74117647,7.99663866 4.17647059,5.98991597 6.48235294,4.25882353 C5.38991597,6.42352941 4.26386555,10.3092437 6.36806723,15.189916 L3.93781513,16.6554622 L3.93781513,16.6554622 Z M23.2151261,3.92941176 C21.497479,2.03697479 19.5445378,0.813445378 17.4134454,0.28907563 C14.5462185,-0.406722689 11.4470588,0.154621849 8.18655462,1.96302521 L7.6789916,1.09579832 C7.53781513,0.857142857 7.22857143,0.776470588 6.98655462,0.914285714 C6.7512605,1.04201681 6.66386555,1.33445378 6.79159664,1.5697479 C6.79495798,1.57647059 6.79831933,1.57983193 6.80168067,1.58655462 L7.32268908,2.47731092 C3.9512605,4.55462185 1.90756303,7.09579832 1.24201681,10.0302521 C0.761344538,12.1176471 1.01008403,14.3697479 1.98151261,16.712605 C2.16302521,17.1495798 2.53613445,17.492437 3.03697479,17.6605042 C3.23193277,17.7176471 3.4,17.7445378 3.56470588,17.7445378 C3.87394958,17.7445378 4.19327731,17.6605042 4.46890756,17.4957983 L13.097479,12.2957983 L19.6016807,23.3714286 C19.7428571,23.610084 20.0521008,23.6941176 20.2941176,23.5529412 C20.5294118,23.4252101 20.6168067,23.1327731 20.4890756,22.897479 C20.4857143,22.8907563 20.4823529,22.887395 20.4789916,22.8806723 L13.9546218,11.7781513 L22.8352941,6.42689076 C23.2689076,6.16470588 23.5546218,5.73445378 23.6319328,5.23361345 C23.6890756,4.75630252 23.5378151,4.28235294 23.2151261,3.92941176 Z" id="Sombrilla-playa-_1Light"></path>
        </g>
    </g>
</svg>

<svg width="24" height="24" viewBox="0 0 24 24" xmlns="http://www.w3.org/2000/svg"><path d="M22.3 5.587l-1.986 1.196c-3.583-3.986-7.26-4.857-9.674-4.894 2.296-.918 4.484-1.14 6.528-.642 1.93.474 3.708 1.597 5.29 3.341a.665.665 0 01.169.518.671.671 0 01-.326.48zM8.816 3.029c1.58-.29 6.172-.575 10.625 4.285l-5.99 3.607-4.635-7.892zM7.242 14.662C4.909 9.11 6.993 5.08 7.995 3.62l4.595 7.819-5.348 3.223zm-3.304 1.993a.693.693 0 01-.592.068.682.682 0 01-.423-.377c-.894-2.158-1.126-4.208-.69-6.1.508-2.25 1.943-4.256 4.25-5.987-1.093 2.165-2.22 6.05-.115 10.93l-2.43 1.466zM23.215 3.93C21.497 2.037 19.545.813 17.413.29c-2.867-.696-5.966-.134-9.226 1.674l-.508-.867a.511.511 0 00-.692-.182.483.483 0 00-.195.656l.01.017.52.89c-3.37 2.078-5.414 4.619-6.08 7.553-.48 2.088-.232 4.34.74 6.683.181.437.554.78 1.055.948.195.057.363.084.528.084.309 0 .628-.084.904-.25l8.628-5.2 6.505 11.076c.14.24.45.323.692.182a.483.483 0 00.195-.656l-.01-.016-6.524-11.103 8.88-5.351a1.68 1.68 0 00.797-1.193 1.638 1.638 0 00-.417-1.305z" fill="#5CB615" fill-rule="nonzero"/></svg>
